www/assets/images/test_icons/flags/MV.svg

<svg fill="none" height="15" viewBox="0 0 21 15" width="21" xmlns="http://www.w3.org/2000/svg" xmlns:xlink="http://www.w3.org/1999/xlink"><mask id="a" height="15" maskUnits="userSpaceOnUse" width="21" x="0" y="0"><path d="m19 0h-17c-1.10457 0-2 .89543-2 2v11c0 1.1046.89543 2 2 2h17c1.1046 0 2-.8954 2-2v-11c0-1.10457-.8954-2-2-2z" fill="#fff"/></mask><g mask="url(#a)"><path d="m19 0h-17c-1.10457 0-2 .89543-2 2v11c0 1.1046.89543 2 2 2h17c1.1046 0 2-.8954 2-2v-11c0-1.10457-.8954-2-2-2z" fill="#d4062e"/><path clip-rule="evenodd" d="m4 4h13v7h-13z" fill="#007f37" fill-rule="evenodd"/><path clip-rule="evenodd" d="m11.125 9.92c-.2.053-.41.08-.625.08-1.38 0-2.5-1.12-2.5-2.5s1.12-2.5 2.5-2.5c.216 0 .425.027.625.08-.647.275-1.125 1.254-1.125 2.42s.478 2.144 1.125 2.42z" fill="#fff" fill-rule="evenodd"/><path d="m19 .5h-17c-.82843 0-1.5.67157-1.5 1.5v11c0 .8284.67157 1.5 1.5 1.5h17c.8284 0 1.5-.6716 1.5-1.5v-11c0-.82843-.6716-1.5-1.5-1.5z" stroke="#000" stroke-opacity=".1"/></g></svg>

<svg width="21" height="15" viewBox="0 0 21 15" fill="none" xmlns="http://www.w3.org/2000/svg">
<mask id="mask0_3_89" style="mask-type:alpha" maskUnits="userSpaceOnUse" x="0" y="0" width="21" height="15">
<path d="M19 0H2C0.89543 0 0 0.89543 0 2V13C0 14.1046 0.89543 15 2 15H19C20.1046 15 21 14.1046 21 13V2C21 0.89543 20.1046 0 19 0Z" fill="white"/>
</mask>
<g mask="url(#mask0_3_89)">
<path d="M19 0H2C0.89543 0 0 0.89543 0 2V13C0 14.1046 0.89543 15 2 15H19C20.1046 15 21 14.1046 21 13V2C21 0.89543 20.1046 0 19 0Z" fill="#D4062E"/>
<path fill-rule="evenodd" clip-rule="evenodd" d="M4 4H17V11H4V4Z" fill="#007F37"/>
<path fill-rule="evenodd" clip-rule="evenodd" d="M11.125 9.92C10.925 9.973 10.715 10 10.5 10C9.12 10 8 8.88 8 7.5C8 6.12 9.12 5 10.5 5C10.716 5 10.925 5.027 11.125 5.08C10.478 5.355 10 6.334 10 7.5C10 8.666 10.478 9.644 11.125 9.92Z" fill="white"/>
<path d="M19 0.5H2C1.17157 0.5 0.5 1.17157 0.5 2V13C0.5 13.8284 1.17157 14.5 2 14.5H19C19.8284 14.5 20.5 13.8284 20.5 13V2C20.5 1.17157 19.8284 0.5 19 0.5Z" stroke="black" stroke-opacity="0.1"/>
</g>
</svg>
